X:6698
T:Hamilton House. JB.56
M:4/4
L:1/8
Q:160
S:James Biggins MS, Leeds, 1779.
R:Reel
O:England
A:Yorkshire
Z:
Z:vmp.Nick Barber & Chris Partingto
K:D
f|e2Ac/d/ ecAa|e2AB/c/ dBGf|e2AB/c/ eAcA|BE E/E/E dBG:|!
|:B|cA c/d/e cAAB|cA c/d/e dBGB|cA c/d/e cAcA|BE E/E/E dBG:|]
